X: 36567
T: Shadow Mountain
R: reel
M: 4/4
K: Dmajor
|:de f2 gf e2|d2BA G2A2|feff GABA-|A2G2 A4:|
|:defe dBA2|BDE f2 ede|fd2d efed|B2A2 G4:|

